assets/images/icons/wildlife.svg

<svg width="32" height="32" viewBox="0 0 32 32" fill="none" xmlns="http://www.w3.org/2000/svg">
<path opacity="0.1" d="M0.223155 23.1618C-0.0589054 20.752 -0.098086 18.3874 0.248062 16.248C0.673696 13.6174 1.78493 10.6909 2.99894 8.07362C5.37163 2.95839 9.61911 1.16885 14.7912 0.362065C22.0007 -0.762522 31.9372 0.362091 32 9.08714C31.6383 12.2073 29.2517 20.8815 21.1951 21.5434C18.5313 21.7622 17.5348 24.4378 16.3612 27.5006C13.2729 35.5602 1.25575 31.9835 0.223155 23.1618Z" fill="#7FB51F"/>
<path d="M20.8993 25C19.7308 25 18.5987 25.3428 17.626 25.9911L17.3867 26.1505C17.503 26.2671 17.6166 26.3867 17.7257 26.5112L18.0441 26.875H25.2186L25.072 26.7284C23.9575 25.6139 22.4758 25 20.8993 25Z" fill="#7FB51F"/>
<path d="M6.99013 26.6661L6.78125 26.875H17.0368C15.719 25.4466 13.8673 24.625 11.9184 24.625C10.0565 24.625 8.30638 25.3503 6.99013 26.6661Z" fill="#7FB51F"/>
<path d="M22 12.625C23.4497 12.625 24.625 11.4497 24.625 10C24.625 8.55025 23.4497 7.375 22 7.375C20.5503 7.375 19.375 8.55025 19.375 10C19.375 11.4497 20.5503 12.625 22 12.625Z" fill="#7FB51F"/>
<path d="M22.375 5.125H21.625V6.625H22.375V5.125Z" fill="#7FB51F"/>
<path d="M18.8193 6.28723L18.2891 6.81763L19.3499 7.87813L19.8801 7.34773L18.8193 6.28723Z" fill="#7FB51F"/>
<path d="M18.625 9.625H17.125V10.375H18.625V9.625Z" fill="#7FB51F"/>
<path d="M19.3497 12.1212L18.2891 13.1819L18.8194 13.7122L19.88 12.6516L19.3497 12.1212Z" fill="#7FB51F"/>
<path d="M22.375 13.375H21.625V14.875H22.375V13.375Z" fill="#7FB51F"/>
<path d="M24.6513 12.1202L24.1211 12.6506L25.1819 13.7111L25.7121 13.1807L24.6513 12.1202Z" fill="#7FB51F"/>
<path d="M26.875 9.625H25.375V10.375H26.875V9.625Z" fill="#7FB51F"/>
<path d="M25.1817 6.28774L24.1211 7.34839L24.6514 7.87871L25.7121 6.81806L25.1817 6.28774Z" fill="#7FB51F"/>
<path d="M16.879 21.7301L17.875 22.1729V20.6553L16.1099 18.8902L16.6401 18.3599L17.875 19.5948V15.6251H18.625V19.5948L19.8599 18.3599L20.3901 18.8902L18.625 20.6553V22.1729L19.621 21.7301C20.6106 21.2906 21.25 20.3066 21.25 19.2239C21.25 18.6637 21.0813 18.1233 20.7625 17.6628L18.25 14.0339L15.7375 17.6628C15.4184 18.1237 15.25 18.6637 15.25 19.2239C15.25 20.3066 15.8894 21.2906 16.879 21.7301Z" fill="#7FB51F"/>
<path d="M8.71413 18.9985L10 19.8167V24.1232C10.2467 24.0602 10.4965 24.01 10.75 23.9717V19.8167L12.0359 18.9985C13.3439 18.166 14.125 16.7432 14.125 15.193C14.125 14.3215 13.8749 13.474 13.4012 12.7424L13.399 12.739L11.5577 9.82524L10.3795 8.05786L7.34875 12.742C6.87513 13.474 6.625 14.3211 6.625 15.193C6.625 16.7432 7.40613 18.166 8.71413 18.9985ZM8.23488 12.8901L8.76512 12.3599L10 13.5947V9.62499H10.75V13.5947L11.9849 12.3599L12.5151 12.8901L10.75 14.6552V16.9697L11.9849 15.7349L12.5151 16.2651L10.75 18.0302V19.75H10V18.0302L8.23488 16.2651L8.76512 15.7349L10 16.9697V14.6552L8.23488 12.8901Z" fill="#7FB51F"/>
<path d="M17.875 24.9827C18.1191 24.8579 18.3689 24.7476 18.625 24.6542V22.375H17.875V24.9827Z" fill="#7FB51F"/>
<path d="M25.4777 17.5C25.3476 17.5 25.2231 17.521 25.1027 17.5521V17.5C25.1027 16.4646 24.2631 15.625 23.2277 15.625C22.6116 15.625 22.0694 15.9265 21.7277 16.3851C21.3932 15.9359 20.866 15.6393 20.2656 15.6273L21.379 17.2356C21.7851 17.8221 22 18.5099 22 19.2239C22 19.6701 21.907 20.0995 21.7488 20.5H25.4777C26.3061 20.5 26.9777 19.8284 26.9777 19C26.9777 18.1716 26.3061 17.5 25.4777 17.5Z" fill="#7FB51F"/>
<path d="M8.23 10L10.3705 6.69212L12.1821 9.40938L12.5552 10H14.125C14.9534 10 15.625 9.32837 15.625 8.5C15.625 7.67162 14.9534 7 14.125 7C13.9926 7 13.8663 7.02175 13.744 7.054C13.7451 7.036 13.75 7.01875 13.75 7C13.75 5.96463 12.9104 5.125 11.875 5.125C11.2589 5.125 10.7166 5.4265 10.375 5.88512C10.0334 5.4265 9.49113 5.125 8.875 5.125C7.83963 5.125 7 5.96463 7 7C7 7.01875 7.00487 7.036 7.006 7.054C6.88375 7.02175 6.75738 7 6.625 7C5.79662 7 5.125 7.67162 5.125 8.5C5.125 9.32837 5.79662 10 6.625 10H8.23Z" fill="#7FB51F"/>
</svg>

<svg xmlns="http://www.w3.org/2000/svg" width="32" height="32" fill="none"><path fill="#7FB51F" d="M.223 23.162c-.282-2.41-.321-4.775.025-6.914.426-2.63 1.537-5.557 2.75-8.174C5.373 2.958 9.62 1.169 14.792.362 22.001-.763 31.937.362 32 9.087c-.362 3.12-2.748 11.795-10.805 12.456-2.664.22-3.66 2.895-4.834 5.958-3.088 8.06-15.105 4.482-16.138-4.34" opacity=".1"/><path fill="#7FB51F" d="M20.9 25c-1.17 0-2.301.343-3.274.991l-.24.16q.175.174.34.36l.318.364h7.175l-.147-.147A5.86 5.86 0 0 0 20.899 25M6.99 26.666l-.209.209h10.256a6.97 6.97 0 0 0-5.119-2.25 6.93 6.93 0 0 0-4.928 2.041M22 12.625a2.625 2.625 0 1 0 0-5.25 2.625 2.625 0 0 0 0 5.25m.375-7.5h-.75v1.5h.75zM18.82 6.287l-.53.53 1.06 1.061.53-.53zm-.195 3.338h-1.5v.75h1.5zm.725 2.496-1.06 1.06.53.531 1.06-1.06zm3.025 1.254h-.75v1.5h.75zm2.276-1.255-.53.53 1.06 1.061.531-.53zm2.224-2.495h-1.5v.75h1.5zm-1.693-3.337-1.06 1.06.53.53 1.06-1.06zM16.879 21.73l.996.443v-1.518L16.11 18.89l.53-.53 1.235 1.235v-3.97h.75v3.97l1.235-1.235.53.53-1.765 1.765v1.518l.996-.443a2.745 2.745 0 0 0 1.142-4.067l-2.513-3.63-2.512 3.63a2.745 2.745 0 0 0 1.142 4.067m-8.166-2.731 1.286.818v4.306a8 8 0 0 1 .75-.151v-4.155l1.286-.819a4.49 4.49 0 0 0 2.089-3.805c0-.871-.25-1.719-.724-2.45l-.002-.004-1.841-2.914-1.178-1.767-3.031 4.684a4.5 4.5 0 0 0-.724 2.451 4.49 4.49 0 0 0 2.09 3.806m-.48-6.109.531-.53L10 13.595v-3.97h.75v3.97l1.235-1.235.53.53-1.765 1.765v2.315l1.235-1.235.53.53-1.765 1.765v1.72H10v-1.72l-1.765-1.765.53-.53L10 16.97v-2.315zm9.64 12.093q.366-.188.75-.329v-2.279h-.75z"/><path fill="#7FB51F" d="M25.478 17.5c-.13 0-.255.021-.375.052V17.5c0-1.035-.84-1.875-1.875-1.875-.616 0-1.159.302-1.5.76a1.87 1.87 0 0 0-1.462-.758l1.113 1.609c.406.586.621 1.274.621 1.988 0 .446-.093.875-.251 1.276h3.729a1.5 1.5 0 0 0 0-3M8.23 10l2.14-3.308 1.812 2.717.373.591h1.57a1.5 1.5 0 0 0 0-3c-.132 0-.259.022-.381.054.001-.018.006-.035.006-.054 0-1.035-.84-1.875-1.875-1.875-.616 0-1.158.301-1.5.76a1.87 1.87 0 0 0-1.5-.76C7.84 5.125 7 5.965 7 7c0 .019.005.036.006.054A1.5 1.5 0 0 0 6.625 7a1.5 1.5 0 0 0 0 3z"/></svg>
